src/img/javascript.svg

<svg class='svg' xmlns="http://www.w3.org/2000/svg" viewBox="0 0 128 128" fill="#ABA8A2"><path  d="M2 1v125h125V1H2zm66.119 106.513c-1.845 3.749-5.367 6.212-9.448 7.401-6.271 1.44-12.269.619-16.731-2.059-2.986-1.832-5.318-4.652-6.901-7.901l9.52-5.83c.083.035.333.487.667 1.071 1.214 2.034 2.261 3.474 4.319 4.485 2.022.69 6.461 1.131 8.175-2.427 1.047-1.81.714-7.628.714-14.065C58.433 78.073 58.48 68 58.48 58h11.709c0 11 .06 21.418 0 32.152.025 6.58.596 12.446-2.07 17.361zm48.574-3.308c-4.07 13.922-26.762 14.374-35.83 5.176-1.916-2.165-3.117-3.296-4.26-5.795 4.819-2.772 4.819-2.772 9.508-5.485 2.547 3.915 4.902 6.068 9.139 6.949 5.748.702 11.531-1.273 10.234-7.378-1.333-4.986-11.77-6.199-18.873-11.531-7.211-4.843-8.901-16.611-2.975-23.335 1.975-2.487 5.343-4.343 8.877-5.235l3.688-.477c7.081-.143 11.507 1.727 14.756 5.355.904.916 1.642 1.904 3.022 4.045-3.772 2.404-3.76 2.381-9.163 5.879-1.154-2.486-3.069-4.046-5.093-4.724-3.142-.952-7.104.083-7.926 3.403-.285 1.023-.226 1.975.227 3.665 1.273 2.903 5.545 4.165 9.377 5.926 11.031 4.474 14.756 9.271 15.672 14.981.882 4.916-.213 8.105-.38 8.581z"/></svg>

<svg width="128" height="128" viewBox="0 0 128 128" fill="none" xmlns="http://www.w3.org/2000/svg">
<path d="M2 1V126H127V1H2ZM68.119 107.513C66.274 111.262 62.752 113.725 58.671 114.914C52.4 116.354 46.402 115.533 41.94 112.855C38.954 111.023 36.622 108.203 35.039 104.954L44.559 99.124C44.642 99.159 44.892 99.611 45.226 100.195C46.44 102.229 47.487 103.669 49.545 104.68C51.567 105.37 56.006 105.811 57.72 102.253C58.767 100.443 58.434 94.625 58.434 88.188C58.433 78.073 58.48 68 58.48 58H70.189C70.189 69 70.249 79.418 70.189 90.152C70.214 96.732 70.785 102.598 68.119 107.513ZM116.693 104.205C112.623 118.127 89.931 118.579 80.863 109.381C78.947 107.216 77.746 106.085 76.603 103.586C81.422 100.814 81.422 100.814 86.111 98.101C88.658 102.016 91.013 104.169 95.25 105.05C100.998 105.752 106.781 103.777 105.484 97.672C104.151 92.686 93.714 91.473 86.611 86.141C79.4 81.298 77.71 69.53 83.636 62.806C85.611 60.319 88.979 58.463 92.513 57.571L96.201 57.094C103.282 56.951 107.708 58.821 110.957 62.449C111.861 63.365 112.599 64.353 113.979 66.494C110.207 68.898 110.219 68.875 104.816 72.373C103.662 69.887 101.747 68.327 99.723 67.649C96.581 66.697 92.619 67.732 91.797 71.052C91.512 72.075 91.571 73.027 92.024 74.717C93.297 77.62 97.569 78.882 101.401 80.643C112.432 85.117 116.157 89.914 117.073 95.624C117.955 100.54 116.86 103.729 116.693 104.205Z" fill="#ABA8A2"/>
<rect x="43" y="23" width="10" height="11" fill="#ABA8A2"/>
</svg>
